cg/arrows-breake-h.svg

<svg viewBox="0 0 24 24" fill="none" xmlns="http://www.w3.org/2000/svg" height="1em" width="1em">
  <path d="M9.24268 7H11.2427V11.0001H11.2477V13.0001H11.2427V17H9.24268V13.0001L4.82846 13L6.65685 14.8284L5.24264 16.2426L1 12L5.24264 7.75732L6.65685 9.17154L4.82839 11H9.24264L9.24268 7Z" fill="currentColor"/>
  <path d="M15.2527 7.00012H13.2527V11.0001H13.2477V13.0001H13.2527V17.0001H15.2527V13.0001L19.667 13L17.8385 14.8285L19.2527 16.2427L23.4954 12L19.2527 7.75739L17.8385 9.17161L19.6669 11H15.2527L15.2527 7.00012Z" fill="currentColor"/>
</svg>

<svg viewBox="0 0 24 24" fill="none" xmlns="http://www.w3.org/2000/svg" height="1em" width="1em">
  <path d="M9.243 7h2v4h.005v2h-.005v4h-2v-4H4.828l1.829 1.828-1.414 1.415L1 12l4.243-4.243 1.414 1.415L4.828 11h4.415V7Zm6.01 0h-2v4h-.005v2h.005v4h2v-4h4.414l-1.829 1.829 1.415 1.414L23.495 12l-4.242-4.243-1.415 1.415L19.668 11h-4.414V7Z" fill="currentColor"/>
</svg>
